X:1
T:Title
%%score { ( 1 3 ) | ( 2 4 ) }
L:1/8
Q:1/4=100
M:6/8
K:F
V:1 treble nm="Grand Piano"
V:3 treble 
V:2 bass 
V:4 bass 
V:1
 [CAc]2 [CGB] [CFA]2 [B,EG] | F-[FG][CFA] [CEG]3 | [CFA]2 [CFA] [CGB]2 [CFA] | %3
w: Robert~Lowry * * *|||
 [DFA][EG][A,DF] [CEG]3 | [CFA]2 [B,EG] [A,F]2 [A,F] | [EG][FA][GB] A3 | c2 d cA[A,CF] | %7
w: ||||
 [CFA]2 [B,EG] [A,F]3 | [EG]2 [FA] [GB]2 [FA] | [GB]2 [Ec] A3 | c2 =B c2 A | [CGB]2 [CFA] [CEG]3 | %12
w: |||||
 [CFA]2 [B,EG] [A,F]2 [A,F] | [EG][FA][GB] A3 | c2 d cA[A,CF] | [CFA]2 [B,EG] [A,F]3 |] %16
w: ||||
V:2
 F,2 E, F,2 C, | z B,F, C,3 | F,2 F, E,2 F, | z A,D, C,3 | F,2 C, D,2 D, | [C,C]2 [C,C] [F,CF]3 | %6
 [F,A,F]2 [F,B,F] [F,F]-[F,CF]F, | C,2 C, F,3 | [C,C]2 [C,C] [C,C]2 [C,C] | [C,C]2 [C,C] [F,CF]3 | %10
 [F,A,F]2 [F,_A,F] [F,=A,F]2 [F,CF] | E,2 F, C,3 | F,2 C, D,2 D, | [C,C]2 [C,C] [F,CF]3 | %14
 [F,A,F]2 [F,B,F] [F,F]-[F,CF]F, | C,2 C, F,3 |] %16
V:3
 x6 | .A,3 z3 | x6 | x6 | x6 | x6 | x6 | x6 | x6 | x6 | x6 | x6 | x6 | x6 | x6 | x6 |] %16
V:4
 x6 | .F,3 z3 | x6 | .D,3 z3 | x6 | x6 | z3 .A,3 | x6 | x6 | x6 | x6 | x6 | x6 | x6 | z3 .A,3 | %15
 x6 |] %16

